_inc/systems/system/dos.svg

<?xml version="1.0" encoding="UTF-8" standalone="no"?>
<svg
   version="1.1"
   viewBox="0 0 264 116"
   id="svg8"
   sodipodi:docname="dos.svg"
   inkscape:version="1.3.2 (091e20e, 2023-11-25, custom)"
   xmlns:inkscape="http://www.inkscape.org/namespaces/inkscape"
   xmlns:sodipodi="http://sodipodi.sourceforge.net/DTD/sodipodi-0.dtd"
   xmlns="http://www.w3.org/2000/svg"
   xmlns:svg="http://www.w3.org/2000/svg">
  <defs
     id="defs8" />
  <sodipodi:namedview
     id="namedview8"
     pagecolor="#505050"
     bordercolor="#eeeeee"
     borderopacity="1"
     inkscape:showpageshadow="0"
     inkscape:pageopacity="0"
     inkscape:pagecheckerboard="0"
     inkscape:deskcolor="#505050"
     inkscape:zoom="1.7001365"
     inkscape:cx="-128.51909"
     inkscape:cy="-300.27001"
     inkscape:window-width="3840"
     inkscape:window-height="2126"
     inkscape:window-x="-11"
     inkscape:window-y="-11"
     inkscape:window-maximized="1"
     inkscape:current-layer="svg8" />
  <path
     opacity="1"
     d="m 12.844,-0.373 c 3.824,-4.957 9.918,-7.668 15.991,-8.455 2.451,-0.007 4.906,0.105 7.357,-0.05 5.734,0.558 11.435,2.99 15.322,7.358 3.302,3.632 5.116,8.437 5.625,13.292 -4.361,0.062 -8.725,0.195 -13.085,0.167 C 43.502,8.738 41.429,5.862 38.583,4.33 35.561,2.692 31.841,2.174 28.567,3.325 c -1.771,0.611 -3.479,1.591 -4.632,3.104 -1.54,1.964 -1.327,4.961 0.202,6.865 1.577,1.927 3.995,2.848 6.289,3.592 5.477,1.648 11.209,2.349 16.585,4.359 3.722,1.374 7.362,3.489 9.635,6.851 2.599,3.86 3.148,8.783 2.522,13.311 -0.647,4.753 -3.177,9.185 -6.883,12.19 -4.978,4.102 -11.541,5.87 -17.9,5.805 -6.146,-0.087 -12.43,-1.697 -17.427,-5.41 -3.367,-2.488 -5.986,-6.034 -7.17,-10.078 -0.635,-1.973 -0.807,-4.052 -0.91,-6.111 4.287,-0.056 8.573,0.062 12.863,-0.003 1.231,3.595 3.892,6.719 7.426,8.167 3.563,1.495 7.735,1.69 11.328,0.177 1.724,-0.726 3.377,-1.824 4.375,-3.449 1.111,-1.79 1.247,-4.222 0.096,-6.027 C 43.862,34.915 41.94,33.932 40.084,33.184 36.557,31.829 32.829,31.137 29.18,30.206 24.437,29.016 19.583,27.653 15.561,24.749 12.709,22.724 10.553,19.71 9.684,16.297 8.231,10.652 9.209,4.259 12.844,-0.373 Z"
     style="fill:#ffffff;stroke-width:1.25"
     transform="matrix(0,-0.8,0.8,0,34.159019,62.815849)"
     id="path1" />
  <path
     opacity="1"
     d="m 5.764,50.974 c 6.256,-0.043 12.508,-0.006 18.764,-0.021 3.348,12.612 6.525,25.271 9.905,37.871 2.554,-12.606 4.861,-25.268 7.386,-37.88 7.078,0.03 14.158,-0.003 21.237,0.014 0.008,22.22 -0.014,44.439 0.011,66.659 -4.268,0.015 -8.532,0.037 -12.799,-0.013 -0.261,-12.336 -0.461,-24.676 -0.838,-37.006 -2.482,12.349 -5.088,24.676 -7.592,37.022 -4.534,0.015 -9.067,0.019 -13.6,0 -3.057,-11.738 -6.049,-23.491 -9.153,-35.217 -0.106,1.073 -0.099,2.153 -0.09,3.23 0.012,10.664 -0.009,21.325 0.009,31.99 -3.279,0.016 -6.556,0.002 -9.835,0.009 -1.134,-0.003 -2.278,0.065 -3.405,-0.13 z"
     style="fill:#ffffff;stroke-width:1.25"
     transform="matrix(0,-0.8,0.8,0,-12.844997,110.25934)"
     id="path2" />
  <path
     opacity="1"
     d="m 140.022,9.864 c 9.547,-7.326 21.897,-10.279 33.815,-9.817 5.508,0.274 10.965,1.284 16.269,2.766 0.194,0.114 0.574,0.337 0.766,0.446 -6.482,4.537 -12.053,10.537 -15.544,17.651 -6.582,-0.742 -13.398,0.907 -18.776,4.792 -6.728,4.695 -11.611,12.186 -12.512,20.377 -1.042,8.274 -2.011,16.558 -3.043,24.832 -0.302,2.29 -0.401,4.678 -1.444,6.786 -1.453,3.047 -3.648,5.684 -5.956,8.13 -2.095,2.175 -5.279,2.528 -8.145,2.559 -6.671,-14.631 -8.031,-31.437 -4.539,-47.068 2.684,-12.149 9.005,-23.853 19.109,-31.454 z"
     style="fill:#ffffff;stroke-width:1.25"
     id="path3"
     transform="matrix(0.8,0,0,0.8,27.056645,15.292896)" />
  <path
     opacity="1"
     d="m 190.221,7.89 c 9.839,-6.346 22.101,-7.719 33.55,-6.543 10.13,1.01 20.49,4.668 27.494,12.304 5.768,6.114 8.473,14.46 9.067,22.699 -7.29,0.134 -14.586,0.071 -21.876,0.03 -0.793,-4.352 -3.023,-8.507 -6.587,-11.222 -5.165,-3.979 -12.074,-5.082 -18.437,-4.274 -4.784,0.695 -9.803,2.212 -13.185,5.839 -2.022,2.243 -3.319,5.647 -2.006,8.548 1.277,3.57 2.517,7.155 3.763,10.735 1.917,5.715 1.026,11.849 0.417,17.709 -8.015,-2.14 -16.301,-5.616 -21.387,-12.45 -4.899,-6.637 -5.524,-15.434 -4.174,-23.319 1.381,-8.165 6.337,-15.61 13.361,-20.056 z"
     style="fill:#ffffff;stroke-width:1.25"
     id="path4"
     transform="matrix(0.8,0,0,0.8,27.056645,15.292896)" />
  <path
     opacity="1"
     d="m 77.963,4.238 c 13.371,-0.358 26.749,-0.695 40.125,-1.011 6.624,-0.021 13.237,0.964 19.543,3.006 0.03,0.911 -0.146,1.797 -0.964,2.331 -5.488,4.776 -9.599,10.843 -13.321,17.014 -7.707,-0.036 -15.414,0.14 -23.126,0.145 0.156,21.791 0.036,43.592 0.187,65.388 4.675,0.373 9.359,0.71 14.039,0.969 4.528,-0.016 9.057,-0.078 13.586,-0.156 4.361,-0.145 7.858,-3.274 10.443,-6.486 3.455,-4.476 6.117,-9.776 6.566,-15.471 0.583,-6.952 1.24,-13.899 1.871,-20.847 0.26,-2.953 0.849,-5.901 2.011,-8.642 2.538,-6.196 7.733,-11.107 13.835,-13.807 8.682,14.595 9.959,32.645 5.952,48.893 -2.908,11.584 -9.766,22.391 -19.902,28.997 -9.896,6.595 -22.106,8.962 -33.872,8.455 -12.325,-0.513 -24.66,-0.85 -36.973,-1.497 z"
     style="fill:#ffffff;stroke-width:1.25"
     id="path5"
     transform="matrix(0.8,0,0,0.8,27.056645,15.292896)" />
  <path
     opacity="1"
     d="m 206.715,26.479 c 4.815,-2.253 10.281,-2.212 15.461,-1.611 5.336,9.642 8.484,20.516 8.551,31.547 0.261,12.284 -3.095,24.475 -8.853,35.292 -5.805,0.684 -11.881,-0.456 -16.842,-3.581 -2.096,-1.305 -3.899,-3.667 -3.226,-6.252 1.36,-5.398 3.21,-10.673 4.695,-16.04 0.782,-3.083 0.453,-6.28 0.412,-9.419 -0.099,-3.7 -0.829,-7.357 -1.892,-10.896 -1.298,-4.445 -3.226,-8.807 -3.419,-13.491 0.115,-2.798 2.793,-4.523 5.113,-5.549 z"
     style="fill:#ffffff;stroke-width:1.25"
     id="path6"
     transform="matrix(0.8,0,0,0.8,27.056645,15.292896)" />
  <path
     opacity="1"
     d="m 233.745,50.513 c 7.984,2.161 16.263,4.798 22.46,10.502 5.128,4.653 7.546,11.579 7.795,18.351 v 3.875 c -0.354,6.399 -2.652,12.746 -6.904,17.61 -5.654,6.57 -13.867,10.424 -22.22,12.356 -11.121,2.508 -22.872,1.949 -33.842,-1.057 -8.848,-2.486 -17.603,-7.409 -22.225,-15.599 -3.153,-5.642 -5.909,-12.237 -4.211,-18.775 7.129,-0.084 14.263,0.052 21.397,0.103 0.792,4.86 2.814,9.823 6.884,12.864 5.065,3.813 11.71,4.394 17.854,4.455 5.586,-0.118 11.558,-0.693 16.29,-3.931 4.111,-2.705 5.727,-8.58 3.408,-12.937 -1.673,-3.047 -4.779,-4.901 -7.744,-6.517 0.193,-7.109 0.725,-14.201 1.058,-21.3 z"
     style="fill:#ffffff;stroke-width:1.25"
     id="path7"
     transform="matrix(0.8,0,0,0.8,27.056645,15.292896)" />
  <path
     opacity="1"
     d="m 165.229,93.463 c 2.803,-0.435 5.732,-0.01 8.582,0.047 3.7,8.393 10.803,14.703 18.427,19.569 -5.602,1.891 -11.501,2.796 -17.41,2.921 h -0.329 c -8.546,-0.088 -17.004,-1.958 -24.956,-5.004 -0.01,-0.104 -0.031,-0.306 -0.042,-0.41 2.924,-2.844 5.952,-5.59 8.922,-8.393 2.861,-2.415 4.481,-5.865 6.806,-8.73 z"
     style="fill:#ffffff;stroke-width:1.25"
     id="path8"
     transform="matrix(0.8,0,0,0.8,27.056645,15.292896)" />
</svg>

<?xml version="1.0" encoding="utf-8"?>
<svg version="1.1" viewBox="0 0 264 116" xmlns="http://www.w3.org/2000/svg">
  <path opacity="1.00" d="M 12.844 -0.373 C 16.668 -5.33 22.762 -8.041 28.835 -8.828 C 31.286 -8.835 33.741 -8.723 36.192 -8.878 C 41.926 -8.32 47.627 -5.888 51.514 -1.52 C 54.816 2.112 56.63 6.917 57.139 11.772 C 52.778 11.834 48.414 11.967 44.054 11.939 C 43.502 8.738 41.429 5.862 38.583 4.33 C 35.561 2.692 31.841 2.174 28.567 3.325 C 26.796 3.936 25.088 4.916 23.935 6.429 C 22.395 8.393 22.608 11.39 24.137 13.294 C 25.714 15.221 28.132 16.142 30.426 16.886 C 35.903 18.534 41.635 19.235 47.011 21.245 C 50.733 22.619 54.373 24.734 56.646 28.096 C 59.245 31.956 59.794 36.879 59.168 41.407 C 58.521 46.16 55.991 50.592 52.285 53.597 C 47.307 57.699 40.744 59.467 34.385 59.402 C 28.239 59.315 21.955 57.705 16.958 53.992 C 13.591 51.504 10.972 47.958 9.788 43.914 C 9.153 41.941 8.981 39.862 8.878 37.803 C 13.165 37.747 17.451 37.865 21.741 37.8 C 22.972 41.395 25.633 44.519 29.167 45.967 C 32.73 47.462 36.902 47.657 40.495 46.144 C 42.219 45.418 43.872 44.32 44.87 42.695 C 45.981 40.905 46.117 38.473 44.966 36.668 C 43.862 34.915 41.94 33.932 40.084 33.184 C 36.557 31.829 32.829 31.137 29.18 30.206 C 24.437 29.016 19.583 27.653 15.561 24.749 C 12.709 22.724 10.553 19.71 9.684 16.297 C 8.231 10.652 9.209 4.259 12.844 -0.373 Z" style="fill: rgb(255, 255, 255);" transform="matrix(0, -1, 1, 0, 8.877968, 59.40369)"/>
  <path opacity="1.00" d="M 5.764 50.974 C 12.02 50.931 18.272 50.968 24.528 50.953 C 27.876 63.565 31.053 76.224 34.433 88.824 C 36.987 76.218 39.294 63.556 41.819 50.944 C 48.897 50.974 55.977 50.941 63.056 50.958 C 63.064 73.178 63.042 95.397 63.067 117.617 C 58.799 117.632 54.535 117.654 50.268 117.604 C 50.007 105.268 49.807 92.928 49.43 80.598 C 46.948 92.947 44.342 105.274 41.838 117.62 C 37.304 117.635 32.771 117.639 28.238 117.62 C 25.181 105.882 22.189 94.129 19.085 82.403 C 18.979 83.476 18.986 84.556 18.995 85.633 C 19.007 96.297 18.986 106.958 19.004 117.623 C 15.725 117.639 12.448 117.625 9.169 117.632 C 8.035 117.629 6.891 117.697 5.764 117.502 L 5.764 50.974 Z" style="fill: rgb(255, 255, 255);" transform="matrix(0, -1, 1, 0, -49.877052, 118.708054)"/>
  <path opacity="1.00" d="M 140.022 9.864 C 149.569 2.538 161.919 -0.415 173.837 0.047 C 179.345 0.321 184.802 1.331 190.106 2.813 C 190.3 2.927 190.68 3.15 190.872 3.259 C 184.39 7.796 178.819 13.796 175.328 20.91 C 168.746 20.168 161.93 21.817 156.552 25.702 C 149.824 30.397 144.941 37.888 144.04 46.079 C 142.998 54.353 142.029 62.637 140.997 70.911 C 140.695 73.201 140.596 75.589 139.553 77.697 C 138.1 80.744 135.905 83.381 133.597 85.827 C 131.502 88.002 128.318 88.355 125.452 88.386 C 118.781 73.755 117.421 56.949 120.913 41.318 C 123.597 29.169 129.918 17.465 140.022 9.864 Z" style="fill: rgb(255, 255, 255);"/>
  <path opacity="1.00" d="M 190.221 7.89 C 200.06 1.544 212.322 0.171 223.771 1.347 C 233.901 2.357 244.261 6.015 251.265 13.651 C 257.033 19.765 259.738 28.111 260.332 36.35 C 253.042 36.484 245.746 36.421 238.456 36.38 C 237.663 32.028 235.433 27.873 231.869 25.158 C 226.704 21.179 219.795 20.076 213.432 20.884 C 208.648 21.579 203.629 23.096 200.247 26.723 C 198.225 28.966 196.928 32.37 198.241 35.271 C 199.518 38.841 200.758 42.426 202.004 46.006 C 203.921 51.721 203.03 57.855 202.421 63.715 C 194.406 61.575 186.12 58.099 181.034 51.265 C 176.135 44.628 175.51 35.831 176.86 27.946 C 178.241 19.781 183.197 12.336 190.221 7.89 Z" style="fill: rgb(255, 255, 255);"/>
  <path opacity="1.00" d="M 77.963 4.238 C 91.334 3.88 104.712 3.543 118.088 3.227 C 124.712 3.206 131.325 4.191 137.631 6.233 C 137.661 7.144 137.485 8.03 136.667 8.564 C 131.179 13.34 127.068 19.407 123.346 25.578 C 115.639 25.542 107.932 25.718 100.22 25.723 C 100.376 47.514 100.256 69.315 100.407 91.111 C 105.082 91.484 109.766 91.821 114.446 92.08 C 118.974 92.064 123.503 92.002 128.032 91.924 C 132.393 91.779 135.89 88.65 138.475 85.438 C 141.93 80.962 144.592 75.662 145.041 69.967 C 145.624 63.015 146.281 56.068 146.912 49.12 C 147.172 46.167 147.761 43.219 148.923 40.478 C 151.461 34.282 156.656 29.371 162.758 26.671 C 171.44 41.266 172.717 59.316 168.71 75.564 C 165.802 87.148 158.944 97.955 148.808 104.561 C 138.912 111.156 126.702 113.523 114.936 113.016 C 102.611 112.503 90.276 112.166 77.963 111.519 L 77.963 4.238 Z" style="fill: rgb(255, 255, 255);"/>
  <path opacity="1.00" d="M 206.715 26.479 C 211.53 24.226 216.996 24.267 222.176 24.868 C 227.512 34.51 230.66 45.384 230.727 56.415 C 230.988 68.699 227.632 80.89 221.874 91.707 C 216.069 92.391 209.993 91.251 205.032 88.126 C 202.936 86.821 201.133 84.459 201.806 81.874 C 203.166 76.476 205.016 71.201 206.501 65.834 C 207.283 62.751 206.954 59.554 206.913 56.415 C 206.814 52.715 206.084 49.058 205.021 45.519 C 203.723 41.074 201.795 36.712 201.602 32.028 C 201.717 29.23 204.395 27.505 206.715 26.479 Z" style="fill: rgb(255, 255, 255);"/>
  <path opacity="1.00" d="M 233.745 50.513 C 241.729 52.674 250.008 55.311 256.205 61.015 C 261.333 65.668 263.751 72.594 264 79.366 L 264 83.241 C 263.646 89.64 261.348 95.987 257.096 100.851 C 251.442 107.421 243.229 111.275 234.876 113.207 C 223.755 115.715 212.004 115.156 201.034 112.15 C 192.186 109.664 183.431 104.741 178.809 96.551 C 175.656 90.909 172.9 84.314 174.598 77.776 C 181.727 77.692 188.861 77.828 195.995 77.879 C 196.787 82.739 198.809 87.702 202.879 90.743 C 207.944 94.556 214.589 95.137 220.733 95.198 C 226.319 95.08 232.291 94.505 237.023 91.267 C 241.134 88.562 242.75 82.687 240.431 78.33 C 238.758 75.283 235.652 73.429 232.687 71.813 C 232.88 64.704 233.412 57.612 233.745 50.513 Z" style="fill: rgb(255, 255, 255);"/>
  <path opacity="1.00" d="M 165.229 93.463 C 168.032 93.028 170.961 93.453 173.811 93.51 C 177.511 101.903 184.614 108.213 192.238 113.079 C 186.636 114.97 180.737 115.875 174.828 116 L 174.499 116 C 165.953 115.912 157.495 114.042 149.543 110.996 C 149.533 110.892 149.512 110.69 149.501 110.586 C 152.425 107.742 155.453 104.996 158.423 102.193 C 161.284 99.778 162.904 96.328 165.229 93.463 Z" style="fill: rgb(255, 255, 255);"/>
</svg>
